X:1
T:Title
%%score 1 { 2 | 3 }
L:1/8
Q:1/4=125
M:3/2
K:G
V:1 treble nm="Grand Piano, Soprano"
V:2 bass nm="Choir Pad, Montluçon, Booth-Clibborn"
V:3 bass 
V:1
 D2 [DB]2 [CA]2 [B,G]6 | [=FB]2 [Ec]2 [GB]2 [^FA]6- | [FA]2 [Gd]4 [Gd]6 | %3
w: By~Catherine~Booth\-Clibborn,~1882 * * *|||
 [Gc]2 [GB]2 [FA]2 [EG]2 [FA]2 [GB]2 | D2 [DB]2 [CA]2 [B,G]6 | [=FB]2 [Ec]2 [DB]2 [DA]6- | %6
w: |||
 [DA]2 [Dd]4 [Ed]6 | [Ec]2 [GB]2 [FA]2 G6- | G2 [GB]4 [GB]6 | [^DB]2 [EB]2 [=FB]2 [Ec]6- | %10
w: ||||
 [Ec]2 [FA]4 A6 | [FA]2 [GA]2 [FA]2 [GB]6 | D2 [DB]2 [CA]2 [B,G]6 | [=FB]2 [Ec]2 [DB]2 [DA]6- | %14
w: ||||
 [DA]2 [Dd]4 [Ed]6 | [Ec]2 [GB]2 [FA]2 G6- | G4 z4 z4 |] %17
w: |||
V:2
 B,2 G,2 F,2 G,6 | D2[K:treble] C2 D2 D6- | D2 D4 E6 | E2 D2 C2 B,2 D2 D2 | B,2 G,2 F,2 G,6 | %5
 G,2 G,2 G,2 F,6- | F,2 G,4 G,6 | G,2[K:treble] D2 C2 B,6- | B,2 D4 D6 | A,2 G,2 G,2 G,6- | %10
 G,2[K:treble] D4 D6 | D2 ^C2 D2 D6 | B,2 G,2 F,2 G,6 | G,2 G,2 G,2 F,6- | F,2 G,4 G,6 | %15
 G,2 D2 C2 B,6- | B,4 z4 z4 |] %17
V:3
 .G,4 .D,4 z4 | G,2 G,2 G,2 D,6- | D,2 B,,4 C,6 | C,2 D,2 D,2 E,2 D,2 G,2 | .G,4 D,2 E,6 | %5
 D,2 C,2 G,,2 D,6- | D,2 B,,4 C,6 | C,2 D,2 z2 G,6- | G,2 G,4 G,6 | F,2 E,2 D,2 C,6- | %10
 C,2 D,4 F,6 | D,2 E,2 D,2 G,6 | .G,4 D,2 E,6 | D,2 C,2 G,,2 D,6- | D,2 B,,4 C,6 | %15
 C,2 D,2 z2 G,6- | G,4 z4 z4 |] %17

